X: 35038
T: Rollicking Skipper, The
R: jig
M: 6/8
K: Dmajor
|:Bcd BAF|EDB, D2E|~F3 EDE|FEE EFA|
Bcd BAF|EDB, D2E|~F3 EDE|FDD DFA:|
|:Bdd Bdd|Bdd dBA|Bee Bee|Bee edA|
Bdd Bdd|Bdd dBA|Bcd BAF|EDD DFA:|

